logos/active-campaign.svg

<?xml version="1.0" encoding="UTF-8"?>
<svg width="512px" height="52px" viewBox="0 0 512 52" version="1.1" xmlns="http://www.w3.org/2000/svg" xmlns:xlink="http://www.w3.org/1999/xlink" preserveAspectRatio="xMidYMid">
    <title>ActiveCampaign</title>
    <g>
        <path d="M384.111008,0.397544153 C385.957665,0.397544153 386.347194,1.50521758 386.347194,2.43656094 L386.347194,5.86537926 L382.817386,5.86537926 C381.05088,5.86537926 380.680586,4.81060485 380.680586,3.92574851 L380.680586,0.400750154 L384.111008,0.400750154 L384.111008,0.397544153 Z M383.811247,11.6313725 C385.274786,11.6313725 386.049036,12.3687528 386.049036,13.7681723 L386.049036,42.5484454 L382.867079,42.5484454 L382.867079,42.4362353 C381.727346,42.3336433 380.978745,41.506495 380.978745,40.3122595 L380.978745,11.6313725 L383.811247,11.6313725 L383.811247,11.6313725 Z M215.387178,34.0717781 C216.477218,35.0608295 216.789803,35.4728006 216.801024,35.4904337 L216.927661,35.6587487 L216.783391,35.8110338 C211.875004,40.9518568 206.945777,43.1447616 200.299736,43.1447616 C188.370205,43.1447616 179.372563,33.892242 179.372563,21.6228753 C179.372563,9.49777865 188.609053,0 200.399122,0 C208.491069,0 212.955426,3.18676523 216.575001,6.63001055 L216.751331,6.79672262 L216.587825,6.97625868 C216.57981,6.98587669 215.678924,7.98614907 214.790862,8.87421141 C213.780971,9.99791485 212.408803,9.72219874 211.56883,8.98642146 C208.141615,6.11063835 204.560512,4.77052984 200.299736,4.77052984 C191.372626,4.77052984 184.641626,11.9311336 184.641626,21.4225002 C184.641626,30.8705859 191.520102,38.2732427 200.299736,38.2732427 C204.724018,38.2732427 208.048641,37.0229022 211.772411,33.9563621 C212.689328,33.1420378 214.229811,32.9144117 215.387178,34.0717781 Z M290.960642,10.8362842 C298.105216,10.8362842 302.542321,15.616432 302.542321,23.312438 L302.542321,42.3496733 L299.906988,42.3496733 C297.848736,42.3496733 297.571416,41.0672728 297.571416,39.8137263 L297.571416,24.3062984 C297.571416,18.6509122 294.798225,15.4096449 289.966782,15.4096449 C285.883939,15.4096449 281.764227,18.251765 281.764227,24.6044565 L281.764227,42.3496733 L279.031111,42.3496733 C277.588411,42.3496733 276.793323,41.554585 276.793323,40.1118844 L276.793323,24.2069123 C276.793323,18.6973992 273.951202,15.4096449 269.190291,15.4096449 C264.437394,15.4096449 260.989339,19.3177604 260.989339,24.7038425 L260.989339,40.1118844 C260.989339,41.8992301 260.205472,42.2502873 258.850937,42.2502873 L256.018435,42.2502873 L256.018435,11.3332144 L258.751551,11.3332144 C260.235929,11.3332144 261.087122,12.1828047 261.087122,13.6687863 L261.087122,15.8536761 C262.994693,13.1766651 265.687734,10.6391151 270.681081,10.6391151 C276.483943,10.6391151 279.255531,14.1240384 280.459385,16.4628163 C283.147617,12.6797349 286.587656,10.8362842 290.959039,10.8362842 L290.960642,10.8362842 Z M326.84862,10.9356702 C334.004415,10.9356702 341.610652,16.5622024 341.610652,26.9897214 C341.610652,37.4188434 334.004415,43.0453756 326.847017,43.0453756 C322.235184,43.0453756 318.506605,41.0977298 315.465712,37.0950373 L315.465712,51.7945529 L312.63321,51.7945529 C311.233791,51.7945529 310.494807,51.0203036 310.494807,49.5567641 L310.494807,11.5319864 L312.931368,11.5319864 C314.588871,11.5319864 315.464109,12.3735618 315.464109,13.9669444 L315.464109,17.1569156 C318.508208,12.971481 322.23839,10.9356702 326.84862,10.9356702 L326.84862,10.9356702 Z M336.440975,26.9897214 C336.440975,19.3866895 331.163897,15.4096449 325.952542,15.4096449 C320.651419,15.4096449 315.167554,19.7040836 315.167554,26.8903353 C315.167554,34.1391041 320.649816,38.4720148 325.952542,38.4720148 C332.128904,38.4720148 336.440975,33.751178 336.440975,26.9897214 Z M418.85284,13.7697753 C418.85284,12.2629547 420.233024,11.4326004 421.188412,11.4326004 L423.921528,11.4326004 L423.921528,36.8321452 C423.921528,46.4036619 418.214846,51.892336 408.265021,51.892336 C403.052063,51.892336 398.356874,50.4384144 394.302886,47.5722493 L394.129762,47.4488183 L394.225942,47.2580612 C394.237163,47.2340162 394.536924,46.6376999 395.328806,45.3504904 C395.751998,44.6612002 396.295415,44.3406001 396.899747,44.3486151 C397.39828,44.3614391 397.951315,44.5778442 398.752815,45.0699653 C401.629872,46.6766003 404.870377,47.519838 408.165635,47.5193503 C415.020066,47.5193503 418.950623,43.6593248 418.950623,36.9315312 L418.950623,34.0637631 C415.694929,38.0311896 411.86536,39.9628054 407.271161,39.9628054 C400.211546,39.9628054 392.7079,34.8572484 392.7079,25.3979418 C392.7079,21.1788441 394.310901,17.3620997 397.223553,14.6530286 C399.900564,12.1635687 403.561817,10.7352951 407.271161,10.7352951 C413.115701,10.7352951 416.7481,13.6816103 418.85284,16.3938873 L418.85284,13.7697753 Z M419.051612,25.5983168 C419.051612,18.9795273 413.442713,15.4080419 408.167238,15.4080419 C402.204076,15.4080419 397.875974,19.6527876 397.875974,25.4989308 C397.875974,31.308205 402.300256,35.6876027 408.167238,35.6876027 C413.518054,35.6876027 419.051612,31.9141393 419.051612,25.5983168 L419.051612,25.5983168 Z M447.334955,10.9356702 C454.550061,10.9356702 459.21319,15.7927621 459.21319,23.310835 L459.21319,42.4474563 L456.180313,42.4474563 C454.790511,42.4474563 454.144502,41.7709901 454.144502,40.3122595 L454.144502,24.4056844 C454.144502,18.8336542 451.077962,15.509031 445.941948,15.509031 C440.703342,15.509031 437.045294,19.3305844 437.045294,24.8032285 L437.146283,42.4474563 L432.074389,42.4474563 L432.074389,11.5319864 L434.807505,11.5319864 C435.971284,11.5319864 437.14468,12.1924227 437.14468,13.6687863 L437.14468,16.3009133 C439.571623,12.7390459 442.995632,10.9356702 447.334955,10.9356702 L447.334955,10.9356702 Z M360.250344,11.1344423 C368.709378,11.1344423 373.4222,15.526664 373.523189,23.508004 L373.523189,42.3496733 L370.78847,42.3496733 C369.329739,42.3496733 368.650067,41.702061 368.650067,40.3122595 L368.650067,38.2203437 C365.926569,41.3814609 362.212416,43.0453756 357.865079,43.0453756 C349.907784,43.0453756 346.281796,37.9686726 346.281796,33.2526448 C346.281796,27.0297964 351.119652,23.461517 359.554641,23.461517 L364.673022,23.461517 L364.673022,25.2007727 C364.673022,26.6386642 363.942054,27.3375725 362.436836,27.3375725 L359.952185,27.3375725 C354.405803,27.3375725 351.352087,29.4038403 351.352087,33.1532588 C351.352087,37.1495393 355.191274,38.968945 358.75795,38.968945 C364.49028,38.968945 368.648464,35.6026437 368.648464,30.9667659 L368.648464,23.6089931 C368.648464,18.4473311 365.525819,15.606814 359.852799,15.606814 C357.296013,15.606814 354.992502,16.0620662 352.387626,17.0815746 C351.440252,17.3973657 350.287695,17.3701147 349.87893,16.3457973 C349.567954,15.5519562 349.268695,14.7535752 348.981249,13.9509144 L348.904305,13.7361123 L349.112695,13.6399322 C352.927837,11.9070886 356.363067,11.1344423 360.250344,11.1344423 L360.250344,11.1344423 Z M235.091261,11.1344423 C243.548693,11.1344423 248.263118,15.526664 248.364107,23.508004 L248.364107,42.3496733 L245.629388,42.3496733 C244.170657,42.3496733 243.490985,41.702061 243.490985,40.3122595 L243.490985,38.2203437 C240.76909,41.3814609 237.054937,43.0453756 232.705997,43.0453756 C224.748701,43.0453756 221.124317,37.9686726 221.124317,33.2526448 C221.124317,27.0297964 225.962173,23.461517 234.397162,23.461517 L239.478674,23.461517 L239.478674,25.2007727 C239.478674,26.6386642 238.746103,27.3375725 237.242488,27.3375725 L234.793103,27.3375725 C229.246721,27.3375725 226.194608,29.4038403 226.194608,33.1532588 C226.194608,37.1495393 230.033795,38.968945 233.600471,38.968945 C239.332801,38.968945 243.490985,35.6026437 243.490985,30.9667659 L243.490985,23.6089931 C243.490985,18.4473311 240.366736,15.606814 234.693717,15.606814 C232.136931,15.606814 229.835022,16.0620662 227.228543,17.0815746 C226.276361,17.4005717 225.128613,17.3701147 224.72145,16.3457973 C224.409233,15.5524326 224.109967,14.7540323 223.82377,13.9509144 L223.74362,13.7329063 L223.956819,13.6399322 C226.907943,12.3382957 230.29829,11.1344423 235.091261,11.1344423 L235.091261,11.1344423 Z M510.310437,22.6151327 C511.429332,23.400603 512,24.3720214 512,25.4989308 L512,26.058378 C511.987176,26.9288074 511.674591,28.1534998 510.310437,29.1778172 L510.305628,29.1810232 C509.648398,29.6507024 502.959077,34.2849772 495.87702,39.1933651 C488.948851,43.9943519 481.142238,49.404479 480.188453,50.0793423 L480.188453,50.8600036 L479.725186,50.0809453 C479.702744,50.0408703 479.681905,50.0072072 479.70595,49.9527052 L479.691523,49.9527052 L479.691523,45.8778777 C479.691523,44.4880761 479.845411,43.8196249 481.392306,42.7888955 C482.684325,41.9585411 503.135407,27.7767947 505.849287,25.898078 C503.156246,24.0273762 482.968056,10.0123419 481.584666,8.99924546 L481.42116,8.88062342 C480.398446,8.14003713 479.59374,7.55654491 479.59374,6.01445831 L479.59374,1.16377845 L479.981666,1.43628855 C481.188725,2.27626088 509.520158,22.0236255 510.310437,22.6151327 L510.310437,22.6151327 Z M492.60209,28.1006008 C491.901578,28.1006008 491.207479,27.8569447 490.476511,27.3712355 C488.706798,26.1898241 479.629006,19.8772076 479.537635,19.8130876 L479.431836,19.7393496 L479.431836,16.6263224 C479.431836,15.9113841 479.739613,15.3455249 480.279824,15.0714118 C480.858507,14.7764597 481.58146,14.8726397 482.213043,15.3310979 C483.578799,16.2095422 496.787524,25.3754998 496.920573,25.4700768 L497.220334,25.6768639 L496.915764,25.880445 C496.915764,25.880445 496.022893,26.4751582 495.032238,27.1676545 C494.184251,27.7896187 493.390766,28.1006008 492.60209,28.1006008 L492.60209,28.1006008 Z M70.9423953,35.3621936 C71.9122107,36.332009 72.4091409,36.7327591 72.4139499,36.7375681 L72.6143249,36.8978682 L72.4476129,37.0934343 C70.0318909,39.9099064 66.4283456,43.1447616 59.9313841,43.1447616 C51.1886187,43.1447616 44.074502,35.9424798 44.074502,27.0891074 C44.074502,18.0305509 51.0395396,10.9356702 59.9313841,10.9356702 C64.927937,10.9356702 68.7254454,12.6156149 72.2424288,16.3826663 L72.3963169,16.5493784 L72.2440318,16.7176934 C71.6909964,17.3302196 71.124464,17.9304234 70.5448511,18.5178631 C69.5702268,19.4892815 68.5475124,19.4331765 67.2266399,18.3335181 C65.4441032,16.8876115 63.1662393,15.4080419 59.831998,15.4080419 C53.8960867,15.4080419 49.2441789,20.4959659 49.2441789,26.9897214 C49.2441789,33.4850799 54.0259298,38.5730038 60.1285531,38.5730038 C62.9450252,38.5730038 65.5306652,37.5230384 67.8165441,35.4551676 C68.4882014,34.9165594 69.8844149,34.3042132 70.9423953,35.3637966 L70.9423953,35.3621936 Z M103.97062,0.399147154 C105.329965,0.399147154 106.206806,1.31606351 106.206806,2.73632205 L106.206806,5.86698226 L102.678602,5.86698226 C100.912095,5.86698226 100.540199,4.81220785 100.540199,3.92735151 L100.540199,0.400750154 L103.97062,0.400750154 L103.97062,0.399147154 Z M103.573076,11.6329755 C105.036615,11.6329755 105.809262,12.3703558 105.809262,13.7697753 L105.809262,42.5500484 L102.628908,42.5500484 L102.628908,42.4378383 C101.487572,42.3352463 100.738971,41.508098 100.738971,40.3138625 L100.738971,11.6313725 L103.573076,11.6313725 L103.573076,11.6329755 Z M136.24864,13.2728451 C136.737556,12.0994487 137.625618,11.5303834 138.96252,11.5303834 L142.425002,11.5303834 L142.272717,11.8782346 C142.150889,12.1571567 130.138002,39.7271643 129.645881,40.8091897 C129.124906,41.9569381 128.373098,42.4474563 127.133979,42.4474563 L126.53606,42.4474563 C125.256865,42.4474563 124.461777,42.2021972 123.921566,40.9037667 C123.43265,39.8265503 111.418161,12.0577706 111.297936,11.7772455 L111.147254,11.4293944 L114.705915,11.4293944 C116.063657,11.4293944 117.01103,12.0513586 117.520784,13.2728451 C117.881459,14.3548705 125.413959,32.6306806 126.834218,36.0787349 C128.257682,32.6322836 135.801403,14.3468555 136.24864,13.2728451 L136.24864,13.2728451 Z M167.394942,25.1510797 C167.683483,25.1510797 167.896682,25.0741356 168.020113,24.9218506 C168.193237,24.7182695 168.234915,24.3479764 168.143544,23.8510462 C167.733176,18.7310622 164.036656,15.3070529 158.943923,15.3070529 C153.891265,15.3070529 149.946281,19.4668395 149.349964,25.4219868 C149.348361,25.4396198 149.252181,26.1257041 149.252181,27.0875044 C149.252181,27.9531248 149.348361,28.637606 149.348361,28.644018 C149.98315,34.7033604 154.197438,38.7685699 159.838398,38.7685699 C163.113328,38.7685699 165.790339,37.7827245 168.021716,35.7517228 C168.614826,35.1586125 169.741735,34.7915254 170.929559,35.7405018 C171.731059,36.442616 172.426761,37.0389323 172.426761,37.0389323 L172.622327,37.2056443 L172.449203,37.3947984 C168.824819,41.3702399 164.905482,43.1431586 159.739011,43.1431586 C150.927317,43.1431586 144.281277,36.1973569 144.281277,26.9897214 C144.281277,17.7788798 150.670837,10.8346812 159.142695,10.8346812 C166.877173,10.8346812 172.569428,16.0764932 173.308412,23.8831062 C173.431843,25.5518298 173.055138,26.9079684 172.218371,27.8088547 C171.407253,28.68249 170.185766,29.1265212 168.587575,29.1265212 C165.868886,29.1265212 159.306201,29.1361392 153.654021,29.2259072 L153.40235,29.2291132 L153.40235,27.2862765 C153.40235,25.949374 154.200644,25.1494767 155.53915,25.1494767 L167.394942,25.1494767 L167.394942,25.1510797 Z M24.4682014,1.93161574 C25.0581056,3.21081024 42.3865423,41.708473 42.5628724,42.0963992 L42.7199664,42.4474563 L39.7512093,42.4474563 C39.1196271,42.4474563 37.1992323,42.4474563 36.442616,40.8107927 C35.8943898,39.6197632 23.2178609,10.8475052 21.3583802,6.62680455 L12.2982207,26.9400284 L25.7089239,26.9400284 L25.7089239,29.1778172 C25.7089239,30.6349448 24.6509435,31.6127752 23.0751939,31.6127752 L10.286455,31.6127752 C9.80395177,32.6771676 6.82397363,39.2286311 6.27574741,40.4148516 C5.50630712,41.8447281 4.60862677,42.4490593 3.26691526,42.4490593 L0,42.4490593 L0.15709406,42.0963992 C0.333424128,41.705267 17.8574269,2.72189505 18.250162,1.83703871 C18.7951822,0.852796328 19.6720236,0.298158115 20.664281,0.298158115 L21.8569134,0.298158115 C23.1986249,0.298158115 23.8558552,0.710129273 24.4649954,1.92680674 L24.4682014,1.93321874 L24.4682014,1.93161574 Z M93.3651679,38.0712646 C93.645693,38.2796547 93.9791172,38.6996409 93.9791172,39.5139652 C93.9791172,40.6088146 93.8829371,41.492068 93.8797311,41.53054 L93.8637011,41.663589 L93.7434761,41.7245031 C92.1661235,42.5147824 89.6446035,43.0437726 87.4677287,43.0437726 C81.7947095,43.0437726 78.6704613,39.9179214 78.6704613,34.2449022 L78.6704613,0.496930191 L81.1070222,0.496930191 C82.6459028,0.496930191 83.6397632,1.41384654 83.6397632,2.83410509 L83.6397632,11.6313725 L90.6496849,11.6313725 C91.9176584,11.6313725 93.2834149,12.3623408 93.2834149,13.9669444 L93.2834149,16.1037442 L83.6413662,16.1037442 L83.7407522,33.5508029 C83.7407522,36.7503921 85.3629888,38.3726288 88.5609751,38.3726288 C89.6109405,38.3726288 90.3643508,38.1882837 91.4784362,37.8853166 C92.2158165,37.6641025 92.9051067,37.7314285 93.3651679,38.0728676 L93.3651679,38.0712646 Z" fill="#004CFF"></path>
    </g>
</svg>

<svg preserveAspectRatio="xMidYMid" viewBox="0 0 512 52" xmlns="http://www.w3.org/2000/svg">
  <path fill="#004CFF" d="M384.111.398c1.847 0 2.236 1.107 2.236 2.039v3.428h-3.53c-1.766 0-2.136-1.054-2.136-1.94V.402h3.43V.398Zm-.3 11.233c1.464 0 2.238.738 2.238 2.137v28.78h-3.182v-.112c-1.14-.102-1.888-.93-1.888-2.124v-28.68h2.832Zm-168.424 22.44c1.09.99 1.403 1.402 1.414 1.42l.127.168-.145.152c-4.908 5.14-9.837 7.334-16.483 7.334-11.93 0-20.927-9.253-20.927-21.522C179.373 9.498 188.609 0 200.399 0c8.092 0 12.556 3.187 16.176 6.63l.176.167-.163.18a56.62 56.62 0 0 1-1.797 1.897c-1.01 1.124-2.382.848-3.222.112-3.427-2.875-7.008-4.215-11.27-4.215-8.926 0-15.657 7.16-15.657 16.652 0 9.448 6.878 16.85 15.658 16.85 4.424 0 7.749-1.25 11.472-4.317.917-.814 2.458-1.042 3.615.116Zm75.574-23.235c7.144 0 11.581 4.78 11.581 12.476V42.35h-2.635c-2.058 0-2.336-1.283-2.336-2.536V24.306c0-5.655-2.773-8.896-7.604-8.896-4.083 0-8.203 2.842-8.203 9.194V42.35h-2.733c-1.443 0-2.238-.795-2.238-2.238V24.207c0-5.51-2.842-8.797-7.603-8.797-4.753 0-8.2 3.908-8.2 9.294v15.408c0 1.787-.785 2.138-2.14 2.138h-2.832V11.333h2.734c1.484 0 2.335.85 2.335 2.336v2.185c1.908-2.677 4.6-5.215 9.594-5.215 5.803 0 8.575 3.485 9.778 5.824 2.689-3.783 6.129-5.627 10.5-5.627h.002Zm35.888.1c7.155 0 14.762 5.626 14.762 16.054 0 10.429-7.607 16.055-14.764 16.055-4.612 0-8.34-1.947-11.381-5.95v14.7h-2.833c-1.4 0-2.138-.775-2.138-2.238V11.532h2.436c1.658 0 2.533.842 2.533 2.435v3.19c3.044-4.186 6.774-6.221 11.385-6.221Zm9.592 16.054c0-7.603-5.277-11.58-10.488-11.58-5.302 0-10.785 4.294-10.785 11.48 0 7.25 5.482 11.582 10.785 11.582 6.176 0 10.488-4.72 10.488-11.482Zm82.412-13.22c0-1.507 1.38-2.337 2.335-2.337h2.734v25.4c0 9.57-5.707 15.06-15.657 15.06-5.213 0-9.908-1.455-13.962-4.32l-.173-.124.096-.19c.011-.025.31-.621 1.103-1.909.423-.689.966-1.01 1.57-1.001.5.012 1.052.229 1.854.721a19.3 19.3 0 0 0 9.413 2.45c6.854 0 10.785-3.86 10.785-10.588v-2.868c-3.256 3.967-7.086 5.899-11.68 5.899-7.06 0-14.563-5.106-14.563-14.565 0-4.22 1.603-8.036 4.516-10.745 2.677-2.49 6.338-3.918 10.047-3.918 5.845 0 9.477 2.947 11.582 5.659V13.77Zm.199 11.828c0-6.618-5.61-10.19-10.885-10.19-5.963 0-10.291 4.245-10.291 10.09 0 5.81 4.424 10.19 10.291 10.19 5.351 0 10.885-3.774 10.885-10.09Zm28.283-14.662c7.215 0 11.878 4.857 11.878 12.375v19.136h-3.033c-1.39 0-2.035-.676-2.035-2.135V24.406c0-5.572-3.067-8.897-8.203-8.897-5.239 0-8.897 3.822-8.897 9.294l.101 17.644h-5.072V11.532h2.734c1.163 0 2.337.66 2.337 2.137V16.3c2.427-3.562 5.85-5.365 10.19-5.365Zm-87.085.198c8.46 0 13.172 4.393 13.273 12.374V42.35h-2.735c-1.458 0-2.138-.648-2.138-2.038V38.22c-2.723 3.161-6.438 4.825-10.785 4.825-7.957 0-11.583-5.076-11.583-9.792 0-6.223 4.838-9.791 13.273-9.791h5.118V25.2c0 1.438-.73 2.137-2.236 2.137h-2.485c-5.546 0-8.6 2.066-8.6 5.815 0 3.997 3.84 5.816 7.406 5.816 5.732 0 9.89-3.366 9.89-8.002v-7.358c0-5.162-3.122-8.002-8.795-8.002-2.557 0-4.86.455-7.465 1.475-.948.315-2.1.288-2.51-.736a86.776 86.776 0 0 1-.897-2.395l-.077-.215.209-.096c3.815-1.733 7.25-2.506 11.137-2.506Zm-125.159 0c8.458 0 13.172 4.393 13.273 12.374V42.35h-2.735c-1.458 0-2.138-.648-2.138-2.038V38.22c-2.722 3.161-6.436 4.825-10.785 4.825-7.957 0-11.582-5.076-11.582-9.792 0-6.223 4.838-9.791 13.273-9.791h5.082V25.2c0 1.438-.733 2.137-2.237 2.137h-2.449c-5.546 0-8.598 2.066-8.598 5.815 0 3.997 3.839 5.816 7.405 5.816 5.733 0 9.891-3.366 9.891-8.002v-7.358c0-5.162-3.124-8.002-8.797-8.002-2.557 0-4.859.455-7.465 1.475-.953.319-2.1.288-2.508-.736a78.472 78.472 0 0 1-.897-2.395l-.08-.218.213-.093c2.95-1.302 6.341-2.506 11.134-2.506Zm275.22 11.481c1.118.786 1.689 1.757 1.689 2.884v.56c-.013.87-.325 2.094-1.69 3.119l-.004.003c-.658.47-7.347 5.104-14.429 10.012-6.928 4.801-14.735 10.211-15.689 10.886v.781l-.463-.78c-.022-.04-.043-.073-.02-.127h-.013v-4.075c0-1.39.153-2.058 1.7-3.09 1.292-.83 21.743-15.011 24.457-16.89-2.693-1.87-22.88-15.886-24.264-16.899l-.164-.118c-1.023-.741-1.827-1.324-1.827-2.867v-4.85l.388.272c1.207.84 29.538 20.588 30.328 21.18Zm-17.709 5.486c-.7 0-1.395-.244-2.125-.73-1.77-1.181-10.848-7.494-10.94-7.558l-.105-.074v-3.113c0-.715.308-1.28.848-1.555.579-.295 1.301-.198 1.933.26 1.366.879 14.575 10.044 14.708 10.14l.3.206-.305.203s-.893.595-1.884 1.288c-.848.622-1.641.933-2.43.933Zm-421.66 7.261c.97.97 1.467 1.37 1.472 1.376l.2.16-.166.195c-2.416 2.817-6.02 6.052-12.517 6.052-8.742 0-15.856-7.203-15.856-16.056 0-9.058 6.965-16.153 15.856-16.153 4.997 0 8.794 1.68 12.311 5.447l.154.166-.152.169a55.896 55.896 0 0 1-1.7 1.8c-.974.971-1.996.915-3.317-.184-1.783-1.446-4.06-2.926-7.395-2.926-5.936 0-10.588 5.088-10.588 11.582 0 6.495 4.782 11.583 10.885 11.583 2.816 0 5.402-1.05 7.688-3.118.671-.538 2.067-1.15 3.125-.091v-.002ZM103.971.4c1.359 0 2.236.917 2.236 2.337v3.131h-3.528c-1.767 0-2.139-1.055-2.139-1.94V.401h3.43V.399Zm-.398 11.234c1.464 0 2.236.737 2.236 2.137v28.78h-3.18v-.112c-1.141-.103-1.89-.93-1.89-2.124V11.63h2.834v.002Zm32.676 1.64c.489-1.174 1.377-1.743 2.714-1.743h3.462l-.152.348c-.122.28-12.135 27.85-12.627 28.931-.521 1.148-1.273 1.638-2.512 1.638h-.598c-1.28 0-2.074-.245-2.614-1.543-.49-1.077-12.504-28.846-12.624-29.127l-.15-.348h3.558c1.358 0 2.305.622 2.815 1.844.36 1.082 7.893 19.358 9.313 22.806 1.424-3.447 8.967-21.732 9.415-22.806Zm31.146 11.878c.288 0 .502-.077.625-.23.173-.203.215-.573.124-1.07-.41-5.12-4.107-8.544-9.2-8.544-5.053 0-8.998 4.16-9.594 10.115-.002.018-.098.704-.098 1.666 0 .865.096 1.55.096 1.556.635 6.06 4.85 10.125 10.49 10.125 3.275 0 5.952-.986 8.184-3.017.593-.593 1.72-.96 2.908-.011a206.63 206.63 0 0 0 1.497 1.298l.195.167-.173.189c-3.624 3.975-7.544 5.748-12.71 5.748-8.812 0-15.458-6.946-15.458-16.153 0-9.211 6.39-16.155 14.862-16.155 7.734 0 13.426 5.241 14.165 13.048.124 1.669-.253 3.025-1.09 3.926-.81.873-2.032 1.318-3.63 1.318-2.72 0-9.282.01-14.934.099l-.252.003v-1.943c0-1.337.799-2.137 2.137-2.137h11.856v.002ZM24.468 1.931c.59 1.28 17.919 39.777 18.095 40.165l.157.351h-2.969c-.631 0-2.552 0-3.308-1.636-.549-1.191-13.225-29.963-15.085-34.184l-9.06 20.313h13.41v2.238c0 1.457-1.057 2.435-2.633 2.435H10.286c-.482 1.064-3.462 7.616-4.01 8.802-.77 1.43-1.667 2.034-3.01 2.034H0l.157-.353c.176-.39 17.7-39.374 18.093-40.259.545-.984 1.422-1.539 2.414-1.539h1.193c1.342 0 1.999.412 2.608 1.629l.003.006v-.001Zm68.897 36.14c.28.209.614.629.614 1.443 0 1.095-.096 1.978-.1 2.017l-.015.133-.12.06c-1.578.79-4.1 1.32-6.276 1.32-5.673 0-8.798-3.126-8.798-8.8V.498h2.437c1.539 0 2.533.917 2.533 2.337v8.797h7.01c1.268 0 2.633.731 2.633 2.336v2.137h-9.642l.1 17.447c0 3.2 1.622 4.822 4.82 4.822 1.05 0 1.803-.185 2.917-.488.738-.22 1.427-.154 1.887.188v-.002Z"/>
</svg>
